X:234
T:Connaughtman's Rambles, The
T:Connachtman's Rambles, The
T:Bean ag Baint Duileasc
T:Gathering Dilisc
R:jig
H:Dilisc is a kind of edible seaweed.
D:Martin O'Connor: Connaughtman's Rambles
D:Matt Molloy: Stony Steps
D:Noel Hill & Tony McMahon: \'I gCnoc na Gra\'i
Z:id:hn-jig-234
M:6/8
K:D
FAA dAA|BAB dAG|FAA dfe|dBB BAG|
FAA dAA|BAB def|gfe dfe|1 dBB BAG:|2 dBB B3||
|:fbb faa|fef deg|fbb faa|fed ~e3|
fbb faa|fef def|gfe dfe|1 dBB ~B3:|2 dBB BAG||
P:variations
|:FGA dAA|BAB dAG|FGA dfe|dBG BAG|
FGA dAA|BAB def|gfe f2e|1 dBA BAG:|2 dBA B3||
|:fbb faa|fef d2e|fbb faa|fed ede|
fbb afe|dBc def|gfe f2e|1 dBA ~B3:|2 dBA BAG||

